X:1
T:Light, 664.6664
T:Light, 664.6664
T:Henry Ford Benson, 1900
T:Public Domain Courtesy of the Cyber Hymnal™
C:Henry Ford Benson, 1900
Z:Public Domain
Z:Courtesy of the Cyber Hymnal™
%%score ( 1 2 ) ( 3 4 )
L:1/8
Q:1/4=115
M:4/4
K:Bb
V:1 treble 
V:2 treble 
V:3 bass 
V:4 bass 
V:1
 B4 F2 F2 | D3 E F4 | [Fd]4 c4 | [FB]3 [=EB] [FA]2 [FB]2 | [FG]4 [=EG]4 | F8 | [DF]4 [DB]2 [Dc]2 | %7
 [Dd]3 [Dc] [DB]4 | [DG]4 [Gc]2 [Ge]2 | [Ge]3 [Gd] [Gc]4 | [Fc]4 [FB]2 [Ff]2 | %11
 [Gf]3 [Ae] [Bd]2 B2 | [EB]4 A4 | [DB]8 |] %14
V:2
 B4 F2 F2 | D3 E F4 | x4 =E2 F2 | x8 | x8 | (F4 E4) | x8 | x8 | x8 | x8 | x8 | x6 (GF) | %12
 x4 (F2 E2) | x8 |] %14
V:3
 B,4 F,2 F,2 | D,3 E, F,4 | B,4 [B,C]2 [A,C]2 | [G,C]3 [C,C] [F,C]2 [D,D]2 | [B,,D]4 (C2 B,2) | %5
 [F,A,]8 | B,4 [G,B,]2 [G,B,]2 | [^F,A,]3 [F,A,] [G,B,]4 | [F,=B,]4 [E,C]2 [C,C]2 | %9
 ([G,=B,]2 [A,C])[B,D] E4 | [A,E]4 [B,D]2 [D,D]2 | [E,D]3 [F,C] [G,B,]2 [G,D]2 | [C,C]4 [F,C]4 | %13
 [B,,B,]8 |] %14
V:4
 B,4 F,2 F,2 | D,3 E, F,4 | B,4 x4 | x8 | x4 C,4 | x8 | B,4 x4 | x8 | x8 | x4 (C2 _B,2) | x8 | x8 | %12
 x8 | x8 |] %14

